src/assets/images/tech/flutter.svg

<svg width="32" height="32" viewBox="0 0 32 32" fill="none" xmlns="http://www.w3.org/2000/svg">
<g id="flutter">
<g id="flutter_2">
<path id="Vector" d="M6.09903 20.9264L0 15.9987L19.8035 0H31.9999L6.09903 20.9264ZM31.9999 14.7636H19.8035L15.2348 18.4548L21.3338 23.3824" fill="#42A5F5" fill-opacity="0.8"/>
<path id="Vector_2" d="M15.2344 28.3092L19.8031 32.0004H31.9995L21.3334 23.3828" fill="#0D47A1"/>
<path id="Vector_3" d="M9.15039 23.3841L15.2398 18.4629L21.3293 23.3828L15.2398 28.304L9.15039 23.3841Z" fill="#42A5F5"/>
<path id="Vector_4" d="M15.2402 28.3047L21.3297 23.3848L22.1797 24.0715L16.0903 28.9914L15.2402 28.3047Z" fill="url(#paint0_linear_1009_4606)"/>
<path id="Vector_5" d="M15.2344 28.3085L24.2837 25.7826L21.3334 23.3809" fill="url(#paint1_linear_1009_4606)"/>
</g>
</g>
<defs>
<linearGradient id="paint0_linear_1009_4606" x1="18.2861" y1="25.8438" x2="18.9576" y2="26.6749" gradientUnits="userSpaceOnUse">
<stop offset="0.2" stop-opacity="0.15"/>
<stop offset="0.85" stop-color="#616161" stop-opacity="0.01"/>
</linearGradient>
<linearGradient id="paint1_linear_1009_4606" x1="15.2365" y1="25.8448" x2="24.2857" y2="25.8448" gradientUnits="userSpaceOnUse">
<stop offset="0.2" stop-opacity="0.55"/>
<stop offset="0.85" stop-color="#616161" stop-opacity="0.01"/>
</linearGradient>
</defs>
</svg>

<svg xmlns="http://www.w3.org/2000/svg" width="32" height="32" fill="none"><path fill="#42A5F5" fill-opacity=".8" d="M6.099 20.926 0 16 19.804 0H32zm25.9-6.162H19.805l-4.57 3.69 6.1 4.928"/><path fill="#0D47A1" d="m15.234 28.31 4.57 3.69H32l-10.667-8.617"/><path fill="#42A5F5" d="m9.15 23.384 6.09-4.921 6.09 4.92-6.09 4.921z"/><path fill="url(#a)" d="m15.24 28.305 6.09-4.92.85.686-6.09 4.92z"/><path fill="url(#b)" d="m15.234 28.309 9.05-2.526-2.95-2.402"/><defs><linearGradient id="a" x1="18.286" x2="18.958" y1="25.844" y2="26.675" gradientUnits="userSpaceOnUse"><stop offset=".2" stop-opacity=".15"/><stop offset=".85" stop-color="#616161" stop-opacity=".01"/></linearGradient><linearGradient id="b" x1="15.236" x2="24.286" y1="25.845" y2="25.845" gradientUnits="userSpaceOnUse"><stop offset=".2" stop-opacity=".55"/><stop offset=".85" stop-color="#616161" stop-opacity=".01"/></linearGradient></defs></svg>
